sharp/svg/wb_sunny.svg

<svg xmlns="http://www.w3.org/2000/svg" width="24" height="24"><path fill="none" d="M0 0h24v24H0V0z"/><g fill="currentColor"><path d="M6.76 4.84l-1.8-1.79-1.41 1.41 1.79 1.79 1.42-1.41zM4 10.5H1v2h3v-2zm9-9.95h-2V3.5h2V.55zm7.45 3.91l-1.41-1.41-1.79 1.79 1.41 1.41 1.79-1.79zm-3.21 13.7l1.79 1.8 1.41-1.41-1.8-1.79-1.4 1.4zM20 10.5v2h3v-2h-3zm-8-5c-3.31 0-6 2.69-6 6s2.69 6 6 6 6-2.69 6-6-2.69-6-6-6zm-1 16.95h2V19.5h-2v2.95zm-7.45-3.91l1.41 1.41 1.79-1.8-1.41-1.41-1.79 1.8z"/></g></svg>

<?xml version="1.0" encoding="utf-8"?>
<!-- Generator: Adobe Illustrator 19.1.0, SVG Export Plug-In . SVG Version: 6.00 Build 0)  -->
<svg version="1.1" xmlns="http://www.w3.org/2000/svg" xmlns:xlink="http://www.w3.org/1999/xlink" x="0px" y="0px" width="24px"
	 height="24px" viewBox="0 0 24 24" enable-background="new 0 0 24 24" xml:space="preserve">
<g id="Bounding_Boxes">
	<g id="ui_x5F_spec_x5F_header_copy_2">
	</g>
	<path fill="none" d="M0,0h24v24H0V0z"/>
</g>
<g id="Sharp" fill="currentColor">
	<g id="ui_x5F_spec_x5F_header_copy_4">
	</g>
	<path d="M6.76,4.84l-1.8-1.79L3.55,4.46l1.79,1.79L6.76,4.84z M4,10.5H1v2h3V10.5z M13,0.55h-2V3.5h2V0.55z M20.45,4.46l-1.41-1.41
		l-1.79,1.79l1.41,1.41L20.45,4.46z M17.24,18.16l1.79,1.8l1.41-1.41l-1.8-1.79L17.24,18.16z M20,10.5v2h3v-2H20z M12,5.5
		c-3.31,0-6,2.69-6,6s2.69,6,6,6s6-2.69,6-6S15.31,5.5,12,5.5z M11,22.45h2V19.5h-2V22.45z M3.55,18.54l1.41,1.41l1.79-1.8
		l-1.41-1.41L3.55,18.54z"/>
</g>
</svg>
